X:195
T:Loch Ness
B:Aird's Airs and Melodies vol 2
M:C
R:Strathspey
Z:Richard Robinson 
%%TUNEURL: http://www.leeds.ac.uk/music/Info/RRTuneBk/gettune/000000ef.html
%%ID:000000ef
K:B min
B|\
B/B/B b2 a3/2(f/2e)f| d(AA)F A>BdA|\
B/B/B b2 a3/(f/e)f| dA B/B/B B::
c|\
B>c de f>edf| A/A/A AF d(AA)d|\
B>c de faef| d/(B3/c3/)A/ B/B/B B:|
